images/brands/schibsted.svg

<?xml version="1.0" encoding="UTF-8"?>
<svg width="253px" height="18px" viewBox="0 0 253 18" version="1.1" xmlns="http://www.w3.org/2000/svg" xmlns:xlink="http://www.w3.org/1999/xlink">
    <!-- Generator: Sketch 46.2 (44496) - http://www.bohemiancoding.com/sketch -->
    <title>smg_small_2014_rgb</title>
    <desc>Created with Sketch.</desc>
    <defs></defs>
    <g id="Page-1" stroke="none" stroke-width="1" fill="none" fill-rule="evenodd">
        <g id="smg_small_2014_rgb">
            <path d="M32.10075,8.35425 L29.63925,7.74 C28.50525,7.443 27.55125,6.984 27.55125,5.9715 C27.55125,4.6755 28.66275,4.1535 29.85075,4.1535 C31.239,4.1535 32.30775,4.60575 32.93325,5.8185 L35.136,4.842 C34.20225,2.68875 32.46975,1.89 30.0645,1.89 C27.279,1.89 24.90975,3.4695 24.90975,6.174 C24.90975,8.71425 26.44875,9.58275 28.36575,10.08 L30.79125,10.656 C31.905,10.98225 32.77125,11.4795 32.77125,12.546 C32.77125,13.878 31.39875,14.436 29.943,14.436 C28.32075,14.436 27.009,13.64625 26.46675,12.25575 L24.04575,13.2075 C24.7905,15.64425 27.216,16.76475 29.87325,16.76475 C33.0345,16.76475 35.3925,15.00525 35.3925,12.35925 C35.3925,9.792 33.822,8.757 32.10075,8.35425" id="Fill-1" fill="#000000"></path>
            <path d="M42.8265,1.89 C39.67425,1.89 37.06875,3.79125 37.06875,7.19775 L37.06875,11.81475 C37.06875,15.0345 39.789,16.78275 42.92775,16.78275 C45.66825,16.78275 48.321,15.24375 48.321,12.0375 L48.321,11.601 L45.7695,11.601 L45.7695,11.79 C45.7695,13.66425 44.235,14.4 42.92775,14.4 C41.22,14.4 39.735,13.42125 39.735,11.67525 L39.735,7.05825 C39.735,5.01075 41.454,4.275 42.8265,4.275 C44.12925,4.275 45.7695,5.01075 45.7695,6.88725 L45.7695,7.074 L48.321,7.074 L48.321,6.63975 C48.321,3.4335 45.567,1.89 42.8265,1.89" id="Fill-2" fill="#000000"></path>
            <polyline id="Fill-3" fill="#000000" points="58.9455 8.0145 53.181 8.0145 53.181 2.1375 50.49225 2.1375 50.49225 16.5465 53.181 16.5465 53.181 10.37025 58.9455 10.37025 58.9455 16.5465 61.623 16.5465 61.623 2.1375 58.9455 2.1375 58.9455 8.0145"></polyline>
            <polygon id="Fill-4" fill="#000000" points="64.8 16.5465 67.48875 16.5465 67.48875 2.1375 64.8 2.1375"></polygon>
            <path d="M79.2585,8.93475 L79.2585,8.901 C80.7255,8.21925 81.29025,7.146 81.29025,5.8545 C81.29025,3.36375 79.641,2.1375 76.85325,2.1375 L70.67475,2.1375 L70.67475,16.5465 L77.19975,16.5465 C79.58925,16.5465 81.74475,15.1155 81.74475,12.4065 C81.74475,10.782 80.91675,9.37575 79.2585,8.93475 L79.2585,8.93475 Z M73.3635,4.4145 L76.40775,4.4145 C77.7645,4.4145 78.66675,4.93875 78.66675,6.201 C78.66675,7.37325 77.88825,8.06175 76.52475,8.06175 L73.3635,8.06175 L73.3635,4.4145 Z M76.72725,14.25825 L73.3635,14.25825 L73.3635,10.3185 L76.75425,10.3185 C78.24825,10.3185 79.07625,10.92375 79.07625,12.23775 C79.07625,13.55175 78.16275,14.25825 76.72725,14.25825 L76.72725,14.25825 Z" id="Fill-5" fill="#000000"></path>
            <path d="M90.82125,8.35425 L88.35975,7.74 C87.228,7.443 86.265,6.984 86.265,5.9715 C86.265,4.6755 87.3855,4.1535 88.56,4.1535 C89.95275,4.1535 91.0305,4.60575 91.64925,5.8185 L93.85425,4.842 C92.92725,2.68875 91.18575,1.89 88.7805,1.89 C86.00175,1.89 83.63925,3.4695 83.63925,6.174 C83.63925,8.71425 85.1715,9.58275 87.0885,10.08 L89.51625,10.656 C90.62325,10.98225 91.49175,11.4795 91.49175,12.546 C91.49175,13.878 90.11025,14.436 88.66125,14.436 C87.048,14.436 85.7385,13.64625 85.1895,12.25575 L82.7685,13.2075 C83.51325,15.64425 85.94325,16.76475 88.578,16.76475 C91.74825,16.76475 94.1085,15.00525 94.1085,12.35925 C94.1085,9.792 92.547,8.757 90.82125,8.35425" id="Fill-6" fill="#000000"></path>
            <polyline id="Fill-7" fill="#000000" points="95.10525 4.4415 99.25425 4.4415 99.25425 16.5465 101.9115 16.5465 101.9115 4.4415 106.05375 4.4415 106.05375 2.1375 95.10525 2.1375 95.10525 4.4415"></polyline>
            <polyline id="Fill-8" fill="#000000" points="110.34 10.37025 116.82225 10.37025 116.82225 8.0235 110.34 8.0235 110.34 4.5045 117.6435 4.5045 117.6435 2.1375 107.6535 2.1375 107.6535 16.5465 117.73125 16.5465 117.73125 14.1705 110.34 14.1705 110.34 10.37025"></polyline>
            <path d="M125.487,2.1375 L119.86875,2.1375 L119.86875,16.5465 L125.5095,16.5465 C128.3535,16.5465 131.1525,14.6475 131.1525,11.232 L131.1525,7.39125 C131.1525,4.18725 128.62125,2.1375 125.487,2.1375 M128.502,11.38725 C128.502,13.455 126.77625,14.1705 125.4105,14.1705 L122.5485,14.1705 L122.5485,4.5045 L125.30025,4.5045 C127.0035,4.5045 128.502,5.48325 128.502,7.22475 L128.502,11.38725" id="Fill-9" fill="#000000"></path>
            <polygon id="Fill-10" fill="#000000" points="0 18 17.46675 18 17.46675 0.531 0 0.531"></polygon>
            <path d="M15.3675,11.8935 C15.40575,11.6325 15.44625,11.35125 15.44625,11.0565 C15.44625,9.72 14.79825,7.98975 14.12325,6.53625 L13.554,5.37075 C13.176,4.56975 12.80475,3.915 12.80475,3.222 C12.80475,2.72925 13.08375,2.36025 13.5405,2.36025 C14.12325,2.36025 14.373,2.781 14.373,3.71025 L15.3495,3.71025 L15.3495,2.08575 C14.76675,1.872 14.1795,1.73925 13.1985,1.73925 C10.935,1.73925 8.955,2.69325 8.955,5.256 C8.955,7.425 10.9755,9.54675 11.14425,11.8935 L9.819,11.8935 C9.51525,9.16425 7.23825,8.901 6.55425,8.901 C4.42575,8.901 2.93625,10.3545 2.93625,12.42225 C2.93625,14.86575 4.53375,16.812 7.974,16.812 C11.25225,16.812 14.202,15.228 15.1425,12.75975 L17.46675,12.75975 L17.46675,11.8935 L15.3675,11.8935 Z M7.56,15.8355 C4.797,15.8355 3.933,13.896 3.933,12.7035 C3.933,11.49525 4.60575,10.8 5.52375,10.8 C6.4395,10.8 7.23825,11.36925 7.23825,12.75975 L11.12625,12.75975 C10.89675,14.70825 9.315,15.8355 7.56,15.8355 L7.56,15.8355 Z" id="Fill-11" fill="#FFFFFE"></path>
            <polyline id="Fill-12" fill="#000105" points="145.07775 10.57725 140.04225 2.2635 139.99275 2.1825 138.93525 2.1825 138.93525 16.64325 139.869 16.64325 139.869 3.8385 144.64575 11.78775 144.6975 11.86875 145.3995 11.86875 150.20775 3.87225 150.20775 16.64325 151.16175 16.64325 151.16175 2.1825 150.0615 2.1825 145.07775 10.57725"></polyline>
            <polyline id="Fill-13" fill="#000105" points="153.19125 16.64325 161.91 16.64325 161.91 15.75225 154.14525 15.75225 154.14525 9.5715 160.3845 9.5715 160.3845 8.67825 154.14525 8.67825 154.14525 3.0735 161.91 3.0735 161.91 2.1825 153.19125 2.1825 153.19125 16.64325"></polyline>
            <path d="M172.836,12.01725 C172.836,13.7385 171.81225,15.75225 168.9255,15.75225 L164.7765,15.75225 L164.7765,3.0735 L168.9255,3.0735 C171.41175,3.0735 172.836,4.455 172.836,6.867 L172.836,12.01725 Z M169.00425,2.1825 L163.82475,2.1825 L163.82475,16.64325 L169.00425,16.64325 C171.9225,16.64325 173.81025,14.796 173.81025,11.9385 L173.81025,6.7275 C173.81025,3.8835 172.0125,2.1825 169.00425,2.1825 L169.00425,2.1825 Z" id="Fill-14" fill="#000105"></path>
            <polygon id="Fill-15" fill="#000105" points="175.90275 16.6455 176.85675 16.6455 176.85675 2.1825 175.90275 2.1825"></polygon>
            <path d="M181.87875,10.68075 L184.55625,3.46725 L187.16175,10.68075 L181.87875,10.68075 Z M185.022,2.10375 L184.15575,2.10375 L178.8255,16.416 L178.73775,16.64325 L179.71425,16.64325 L181.57725,11.55375 L187.45875,11.55375 L189.2835,16.533 L189.324,16.64325 L190.3365,16.64325 L185.0625,2.214 L185.022,2.10375 L185.022,2.10375 Z" id="Fill-16" fill="#000105"></path>
            <path d="M200.79225,10.18575 L204.894,10.18575 L204.894,12.771 C204.894,14.79825 203.382,16.00875 200.844,16.00875 C198.198,16.00875 196.5555,14.4495 196.5555,11.9385 L196.5555,6.94575 C196.5555,4.47525 198.2385,2.817 200.745,2.817 C203.28075,2.817 204.795,4.03425 204.795,6.075 L204.795,6.99525 L205.74675,6.99525 L205.74675,5.89725 C205.74675,3.573 203.6835,1.8855 200.844,1.8855 C197.79525,1.8855 195.5835,3.9825 195.5835,6.867 L195.5835,12.15675 C195.5835,15.084 197.59725,16.902 200.844,16.902 C203.8815,16.902 205.84575,15.33375 205.84575,12.90825 L205.84575,9.27225 L200.79225,9.27225 L200.79225,10.18575" id="Fill-17" fill="#000105"></path>
            <path d="M209.07,9.729 L209.07,3.05325 L212.34825,3.05325 C214.947,3.05325 216.378,4.21875 216.378,6.3315 C216.378,8.65125 215.09775,9.729 212.34825,9.729 L209.07,9.729 Z M217.38825,6.3315 C217.38825,3.8115 215.56575,2.1825 212.74425,2.1825 L208.116,2.1825 L208.116,16.64325 L209.07,16.64325 L209.07,10.602 L212.34375,10.602 L216.9585,16.64325 L218.1375,16.64325 L213.45975,10.55025 C215.92575,10.2645 217.38825,8.70525 217.38825,6.3315 L217.38825,6.3315 Z" id="Fill-18" fill="#000105"></path>
            <path d="M228.63375,11.85975 C228.63375,14.3415 226.9125,16.00875 224.34525,16.00875 C221.69925,16.00875 220.059,14.4495 220.059,11.9385 L220.059,7.146 C220.059,4.55625 221.742,2.817 224.24625,2.817 C226.99575,2.817 228.63375,4.2705 228.63375,6.70725 L228.63375,11.85975 Z M224.34525,1.8855 C221.1885,1.8855 219.0645,3.96 219.0645,7.047 L219.0645,12.15675 C219.0645,15.039 221.13675,16.902 224.34525,16.902 C227.49075,16.902 229.60575,14.8275 229.60575,11.7405 L229.60575,6.68925 C229.60575,3.726 227.58975,1.8855 224.34525,1.8855 L224.34525,1.8855 Z" id="Fill-19" fill="#000105"></path>
            <path d="M240.89175,12.02175 C240.9255,13.16925 240.588,14.1435 239.9085,14.84325 C239.16825,15.60825 238.07475,16.00875 236.7405,16.00875 C235.4805,16.00875 232.551,15.606 232.551,11.85975 L232.551,2.1825 L231.59925,2.1825 L231.59925,12.1185 C231.59925,15.64875 234.32625,16.902 236.66175,16.902 C238.2975,16.902 239.652,16.4025 240.57675,15.4575 C241.407,14.6115 241.82775,13.4505 241.803,12.09825 L241.803,2.1825 L240.89175,2.1825 L240.89175,12.02175" id="Fill-20" fill="#000105"></path>
            <path d="M247.59,9.88875 L244.68975,9.88875 L244.68975,3.05325 L248.28525,3.05325 C250.3575,3.05325 251.8605,4.46625 251.8605,6.4125 C251.8605,9.28575 249.53625,9.88875 247.59,9.88875 Z M248.34375,2.1825 L243.73575,2.1825 L243.73575,16.64325 L244.68975,16.64325 L244.68975,10.7595 L247.8465,10.7595 C250.88625,10.7595 252.8505,9.05175 252.8505,6.4125 C252.8505,3.8835 251.03925,2.1825 248.34375,2.1825 L248.34375,2.1825 Z" id="Fill-21" fill="#000105"></path>
        </g>
    </g>
</svg>

<svg width="253" height="18" viewBox="0 0 253 18" xmlns="http://www.w3.org/2000/svg"><title>smg_small_2014_rgb</title><g fill="none" fill-rule="evenodd"><path d="M32.1 8.354l-2.46-.614c-1.135-.297-2.09-.756-2.09-1.77 0-1.294 1.113-1.816 2.3-1.816 1.39 0 2.458.452 3.083 1.665l2.203-.978C34.202 2.69 32.47 1.89 30.064 1.89c-2.785 0-5.154 1.58-5.154 4.284 0 2.54 1.54 3.41 3.456 3.906l2.425.576c1.115.326 1.98.823 1.98 1.89 0 1.332-1.37 1.89-2.827 1.89-1.622 0-2.934-.79-3.476-2.18l-2.42.95c.744 2.438 3.17 3.56 5.826 3.56 3.162 0 5.52-1.76 5.52-4.407 0-2.568-1.57-3.603-3.292-4.006M42.827 1.89c-3.153 0-5.758 1.9-5.758 5.308v4.617c0 3.22 2.72 4.968 5.858 4.968 2.74 0 5.393-1.54 5.393-4.746v-.436h-2.55v.19c0 1.874-1.535 2.61-2.842 2.61-1.708 0-3.193-.98-3.193-2.725V7.058c0-2.047 1.72-2.783 3.092-2.783 1.302 0 2.943.736 2.943 2.612v.187h2.55V6.64c0-3.206-2.753-4.75-5.493-4.75M58.946 8.014H53.18V2.138h-2.688v14.41h2.69V10.37h5.764v6.177h2.677V2.137h-2.677v5.877M64.8 16.547h2.69V2.137H64.8M79.258 8.935V8.9c1.468-.68 2.032-1.754 2.032-3.046 0-2.49-1.65-3.716-4.437-3.716h-6.178v14.41H77.2c2.39 0 4.545-1.432 4.545-4.14 0-1.626-.828-3.032-2.487-3.473zm-5.894-4.52h3.044c1.356 0 2.26.524 2.26 1.786 0 1.173-.78 1.862-2.143 1.862h-3.162V4.415zm3.363 9.843h-3.364v-3.94h3.39c1.495 0 2.323.606 2.323 1.92s-.913 2.02-2.35 2.02zM90.82 8.354l-2.46-.614c-1.132-.297-2.095-.756-2.095-1.77 0-1.294 1.12-1.816 2.295-1.816 1.393 0 2.47.452 3.09 1.665l2.204-.978C92.927 2.69 91.186 1.89 88.78 1.89c-2.778 0-5.14 1.58-5.14 4.284 0 2.54 1.53 3.41 3.448 3.906l2.428.576c1.107.326 1.976.823 1.976 1.89 0 1.332-1.382 1.89-2.83 1.89-1.614 0-2.924-.79-3.473-2.18l-2.42.95c.743 2.438 3.173 3.56 5.808 3.56 3.17 0 5.53-1.76 5.53-4.407 0-2.568-1.56-3.603-3.287-4.006M95.105 4.44h4.15v12.107h2.657V4.44h4.142V2.138h-10.95V4.44M110.34 10.37h6.482V8.024h-6.482v-3.52h7.303V2.139h-9.99v14.41h10.078V14.17h-7.39v-3.8M125.487 2.138h-5.618v14.41h5.64c2.843 0 5.642-1.9 5.642-5.316v-3.84c0-3.205-2.53-5.255-5.665-5.255m3.015 9.25c0 2.068-1.726 2.784-3.092 2.784h-2.86V4.506h2.75c1.704 0 3.202.978 3.202 2.72v4.162M0 18h17.467V.53H0" fill="#000"/><path d="M15.367 11.893c.04-.26.08-.542.08-.837 0-1.336-.65-3.066-1.324-4.52l-.57-1.165c-.377-.8-.748-1.455-.748-2.148 0-.493.28-.862.736-.862.583 0 .833.42.833 1.35h.977V2.086c-.583-.214-1.17-.347-2.152-.347-2.263 0-4.243.953-4.243 3.516 0 2.17 2.02 4.29 2.19 6.637H9.818C9.514 9.163 7.237 8.9 6.553 8.9c-2.128 0-3.618 1.454-3.618 3.522 0 2.444 1.598 4.39 5.038 4.39 3.278 0 6.228-1.584 7.168-4.052h2.325v-.867h-2.1zM7.56 15.835c-2.763 0-3.627-1.94-3.627-3.132 0-1.208.673-1.903 1.59-1.903s1.715.57 1.715 1.96h3.888c-.23 1.948-1.81 3.075-3.566 3.075z" fill="#FFFFFE"/><path fill="#000105" d="M145.078 10.577l-5.036-8.313-.05-.08-1.057-.002v14.46h.934V3.84l4.776 7.948.052.08h.7l4.81-7.996v12.77h.954V2.183h-1.1l-4.984 8.395M153.19 16.643h8.72v-.89h-7.765V9.57h6.24v-.894h-6.24V3.073h7.765v-.89h-8.72v14.46M172.836 12.017c0 1.722-1.024 3.735-3.91 3.735h-4.15V3.072l4.15.002c2.486 0 3.91 1.38 3.91 3.793v5.15zm-3.832-9.834h-5.18v14.46h5.18c2.92 0 4.806-1.847 4.806-4.705v-5.21c0-2.844-1.798-4.545-4.806-4.545zM175.903 16.645h.954V2.183h-.954M181.88 10.68l2.676-7.213 2.606 7.214h-5.283zm3.142-8.576h-.866l-5.33 14.312-.088.227h.976l1.863-5.09h5.882l1.823 4.98.04.11h1.013l-5.274-14.43-.04-.11zM200.792 10.186h4.102v2.585c0 2.028-1.512 3.24-4.05 3.24-2.646 0-4.288-1.56-4.288-4.072V6.946c0-2.47 1.682-4.13 4.19-4.13 2.535 0 4.05 1.218 4.05 3.26v.92h.95v-1.1c0-2.323-2.063-4.01-4.902-4.01-3.05 0-5.26 2.096-5.26 4.98v5.29c0 2.928 2.013 4.746 5.26 4.746 3.037 0 5.002-1.568 5.002-3.994V9.272h-5.054v.914M209.07 9.73V3.052h3.278c2.6 0 4.03 1.166 4.03 3.28 0 2.318-1.28 3.396-4.03 3.396h-3.278zm8.318-3.4c0-2.518-1.822-4.147-4.644-4.147h-4.628v14.46h.954v-6.04h3.274l4.614 6.04h1.18l-4.678-6.093c2.466-.286 3.928-1.845 3.928-4.22v.002zM228.634 11.86c0 2.482-1.72 4.15-4.29 4.15-2.645 0-4.285-1.56-4.285-4.072V7.146c0-2.59 1.682-4.33 4.186-4.33 2.75 0 4.388 1.455 4.388 3.89v5.154zm-4.29-9.974c-3.155 0-5.28 2.074-5.28 5.16v5.11c0 2.883 2.073 4.746 5.28 4.746 3.147 0 5.262-2.075 5.262-5.162V6.69c0-2.964-2.016-4.805-5.26-4.805zM240.892 12.022c.034 1.147-.304 2.12-.983 2.82-.742.766-1.835 1.167-3.17 1.167-1.26 0-4.19-.404-4.19-4.15V2.182h-.95v9.937c0 3.53 2.726 4.782 5.062 4.782 1.636 0 2.99-.5 3.915-1.445.83-.846 1.25-2.007 1.226-3.36V2.184h-.91v9.84M247.59 9.89h-2.9V3.052h3.595c2.072 0 3.576 1.413 3.576 3.36 0 2.873-2.324 3.476-4.27 3.476zm.754-7.708h-4.608v14.46h.954V10.76h3.156c3.04 0 5.005-1.708 5.005-4.348 0-2.528-1.81-4.23-4.506-4.23z"/></g></svg>
